X:892
T:The Boy From the Glens
N:"Collected by F.O'Neill"
B:O'Neill's 892
Z:Transcribed by Dan G. Petersen, dangp@post6.tele.dk
M:6/8
L:1/8
K:D
e|dBA ABA|def dBA|BdA B2g|ada gfe|
dBA ABA|d/e/fe dBA|dBA eag|fdd d2:|
A|def agfg|agf fef|def gfg|f2d edB|
def agfg|agf fef|dBA B2g|ada gfe|]
